!!! OTL: Berkowitz471
!!! Chapter: 1
!!! Section: IV
!!! Page: 117
!!! Mode: 
!!! Encoder: DJB
**kern
*staff1
*I"Piano
=1-
*clefG2
*k[b-e-a-d-]
*f:
*M12/8
4.cc\
[4bn\
16b\LL]
16cc\JJ
4.ee-\
4.dd-\
=2
4g/
32a-/LLL
32g/
32f/
32g/JJJ
[4a-/
16a-/LL]
16f/JJ
4.f/
4e-/
8r
=3
4.e-/
[4a-/
16a-\LL]
16cc\JJ
4ff\
8ff-\
8ee-\L
8dd-\
8cc\J
=4
!!linebreak:original
4b-\
32cc\LLL
32b-\
32an\
32b-\JJJ
[4dd-\
16dd-\LL]
16cc\JJ
4.b-\
4a-/
8r
=5
4f-/
[8e-/
8e-/L]
8a-/
8cc/J
8ff\L
8ee-\
8dd-\J
8cc\L
8b-\
8a-\J
=6
4g-/
[8f/
8f/L]
8an/
8cc/J
8gg-\L
8ff\
8ee-\J
4dd-\
8cc\
=7
!!linebreak:original
4bn\
8ff\
4een\
8cc\
8.b/L
16a-/L
16g/
16f/JJ
4d-/
8Bn/
=8
8c/L
8f/
8a-/J
4.cc\
8c/L
8en/
8g/J
4ee-\
8dd-\
=9
4.cc\
[4bn\
16b\LL]
16cc\JJ
[4ee-\
16ee-\LL]
16ddn\JJ
4.dd-\
=10
!!linebreak:original
4g/
32a-/LLL
32g/
32f/
32g/JJJ
[4a-/
16a-/LL]
16f/JJ
4.f/
4en/
8r
=11
8f/L
8g/
[8a-/J
8a-/L]
8g/
8an/J
8b-\L
8cc\
[8dd-\J
8dd-\L]
8ee-\
8ff\J
=12
4c/
32d-/LLL
32c/
32Bn/
32c/JJJ
[4a-/
16a-/LL]
16en/JJ
4.g/
4.f/
==
*-
